resources/haticons/SVG/gif.svg

<!-- Generated by IcoMoon.io -->
<svg version="1.1" xmlns="http://www.w3.org/2000/svg" width="24" height="24" viewBox="0 0 24 24">
<title>gif</title>
<path d="M18.984 10.5h-3v0.984h2.016v1.5h-2.016v2.016h-1.5v-6h4.5v1.5zM9 9q0.422 0 0.703 0.281t0.281 0.703v0.516h-3.469v3h1.969v-1.5h1.5v2.016q0 0.422-0.281 0.703t-0.703 0.281h-3q-0.422 0-0.703-0.281t-0.281-0.703v-4.031q0-0.422 0.281-0.703t0.703-0.281h3zM11.484 9h1.5v6h-1.5v-6z"></path>
</svg>

<svg xmlns="http://www.w3.org/2000/svg" width="24" height="24"><path d="M18.984 10.5h-3v.984H18v1.5h-2.016V15h-1.5V9h4.5v1.5zM9 9q.422 0 .703.281t.281.703v.516H6.515v3h1.969V12h1.5v2.016q0 .422-.281.703T9 15H6q-.422 0-.703-.281t-.281-.703V9.985q0-.422.281-.703T6 9.001h3zm2.484 0h1.5v6h-1.5V9z"/></svg>
